;FLAVOR:Marlin
;TIME:3866
;Filament used: 8.1764m
;Layer height: 0.25
;MINX:72.72
;MINY:67.721
;MINZ:0.2
;MAXX:147.28
;MAXY:142.279
;MAXZ:34.95
;Generated with Cura_SteamEngine 4.8.0
M140 S50
M105
M190 S50
M104 S200
M105
M109 S200
M82 ;absolute extrusion mode
G21 ;metric values
G90 ;absolute positioning
M82 ;set extruder to absolute mode
M107 ;start with the fan off
G28 X0 Y0 ;move X/Y to min endstops
G28 Z0 ;move Z to min endstops
G1 Z15.0 F100 ;move the platform down 15mm
G92 E0 ;zero the extruded length
G1 F200 E3 ;extrude 3mm of feed stock
G92 E0 ;zero the extruded length again
G1 F100
G0 Y20 F100
M117 Printing...
G5
G92 E0
G92 E0
G1 F2400 E-6
;LAYER_COUNT:140
;LAYER:0
M106 S255
M204 S3000
M205 X10 Y10
G1 F600 Z0.275
G0 F2400 X76.372 Y72.48 Z0.275
M204 S1800
M205 X8 Y8
;TYPE:SKIRT
G1 F600 Z0.2
G1 F2400 E0
G1 X76.926 Y71.895 E0.03752
G1 X77.52 Y71.338 E0.07543
G1 X78.149 Y70.807 E0.11376
G1 X78.456 Y70.572 E0.13177
G1 X78.922 Y70.238 E0.15846
G1 X79.492 Y69.866 E0.19016
G1 X79.951 Y69.593 E0.21502
G1 X80.472 Y69.311 E0.24261
G1 X81.021 Y69.044 E0.27104
G1 X81.763 Y68.727 E0.30861
G1 X82.448 Y68.476 E0.34258
G1 X83.355 Y68.205 E0.38666
G1 X84.129 Y68.023 E0.42368
G1 X84.937 Y67.881 E0.46188
G1 X85.786 Y67.783 E0.50168
G1 X86.547 Y67.738 E0.53717
G1 X87.662 Y67.722 E0.5891
G1 X132.348 Y67.721 E2.66987
G1 X133.495 Y67.739 E2.72328
G1 X134.196 Y67.78 E2.75598
G1 X134.573 Y67.818 E2.77362
G1 X135.171 Y67.897 E2.80171
G1 X135.864 Y68.019 E2.83448
G1 X136.69 Y68.215 E2.87401
G1 X137.022 Y68.309 E2.89007
G1 X137.59 Y68.49 E2.91783
G1 X138.208 Y68.715 E2.94846
G1 X139.039 Y69.072 E2.99057
G1 X139.788 Y69.449 E3.02962
G1 X140.477 Y69.846 E3.06664
G1 X140.79 Y70.045 E3.08391
G1 X141.288 Y70.385 E3.11199
G1 X141.816 Y70.78 E3.1427
G1 X142.492 Y71.347 E3.18378
G1 X143.093 Y71.913 E3.22222
G1 X143.655 Y72.509 E3.26037
G1 X144.199 Y73.157 E3.29976
G1 X144.705 Y73.841 E3.33938
G1 X145.147 Y74.514 E3.37687
G1 X145.555 Y75.218 E3.41476
G1 X145.94 Y75.988 E3.45485
G1 X146.276 Y76.77 E3.49448
G1 X146.532 Y77.472 E3.52927
G1 X146.785 Y78.31 E3.57003
G1 X146.972 Y79.102 E3.60793
G1 X147.123 Y79.963 E3.64863
G1 X147.211 Y80.709 E3.68361
G1 X147.263 Y81.593 E3.72484
G1 X147.28 Y82.666 E3.77481
G1 X147.28 Y127.29 E5.85269
G1 X147.261 Y128.483 E5.90825
G1 X147.218 Y129.218 E5.94253
G1 X147.179 Y129.6 E5.96041
G1 X147.102 Y130.173 E5.98733
G1 X146.971 Y130.906 E6.02201
G1 X146.788 Y131.682 E6.05913
G1 X146.697 Y132 E6.07453
G1 X146.498 Y132.627 E6.10516
G1 X146.284 Y133.212 E6.13417
G1 X146.124 Y133.599 E6.15367
G1 X145.891 Y134.116 E6.18008
G1 X145.545 Y134.799 E6.21573
G1 X145.135 Y135.506 E6.25378
G1 X144.679 Y136.199 E6.29241
G1 X144.21 Y136.828 E6.32895
G1 X143.628 Y137.52 E6.37105
G1 X143.076 Y138.104 E6.40847
G1 X142.48 Y138.662 E6.44648
G1 X141.851 Y139.193 E6.48481
G1 X141.544 Y139.428 E6.50282
G1 X141.078 Y139.762 E6.52951
G1 X140.508 Y140.134 E6.56121
G1 X140.049 Y140.407 E6.58608
G1 X139.528 Y140.689 E6.61366
G1 X138.983 Y140.954 E6.64188
G1 X138.237 Y141.273 E6.67966
G1 X137.552 Y141.524 E6.71363
G1 X136.645 Y141.795 E6.75771
G1 X135.871 Y141.977 E6.79473
G1 X135.063 Y142.119 E6.83293
G1 X134.214 Y142.217 E6.87273
G1 X133.453 Y142.262 E6.90823
G1 X132.338 Y142.278 E6.96015
G1 X87.652 Y142.279 E9.04092
G1 X86.505 Y142.261 E9.09433
G1 X85.804 Y142.22 E9.12703
G1 X85.427 Y142.182 E9.14467
G1 X84.829 Y142.103 E9.17276
G1 X84.136 Y141.981 E9.20553
G1 X83.302 Y141.783 E9.24544
G1 X82.978 Y141.691 E9.26112
G1 X82.41 Y141.51 E9.28888
G1 X81.792 Y141.285 E9.31951
G1 X80.961 Y140.928 E9.36162
G1 X80.212 Y140.551 E9.40067
G1 X79.521 Y140.153 E9.4378
G1 X79.203 Y139.95 E9.45537
G1 X78.71 Y139.614 E9.48315
G1 X78.183 Y139.22 E9.51379
G1 X77.509 Y138.654 E9.55477
G1 X76.908 Y138.088 E9.59321
G1 X76.346 Y137.492 E9.63135
G1 X75.801 Y136.843 E9.67082
G1 X75.295 Y136.16 E9.7104
G1 X74.852 Y135.485 E9.74799
G1 X74.444 Y134.781 E9.78588
G1 X74.27 Y134.446 E9.80346
G1 X74.018 Y133.923 E9.83049
G1 X73.725 Y133.233 E9.8654
G1 X73.468 Y132.527 E9.90038
G1 X73.216 Y131.691 E9.94104
G1 X73.027 Y130.896 E9.97909
G1 X72.877 Y130.038 E10.01965
G1 X72.789 Y129.289 E10.05476
G1 X72.737 Y128.407 E10.09591
G1 X72.72 Y127.3 E10.14746
G1 X72.72 Y82.698 E12.22431
G1 X72.739 Y81.511 E12.27959
G1 X72.782 Y80.786 E12.31341
G1 X72.821 Y80.398 E12.33157
G1 X72.898 Y79.827 E12.3584
G1 X73.029 Y79.094 E12.39307
G1 X73.213 Y78.315 E12.43034
G1 X73.304 Y77.997 E12.44574
G1 X73.504 Y77.369 E12.47643
G1 X73.716 Y76.788 E12.50523
G1 X73.876 Y76.401 E12.52473
G1 X74.112 Y75.879 E12.55141
G1 X74.455 Y75.202 E12.58675
G1 X74.865 Y74.494 E12.62484
G1 X75.321 Y73.801 E12.66347
G1 X75.791 Y73.17 E12.70011
G1 X76.372 Y72.48 E12.74211
M204 S3000
M205 X10 Y10
G1 F2400 E6.74211
;MESH:coil_jig.stl
G0 X78.903 Y74.349
G0 X86.389 Y76.704
M204 S1800
M205 X8 Y8
;TYPE:WALL-INNER
G1 F2400 E12.74211
G1 X85.393 Y76.61 E12.78869
G1 X84.405 Y76.769 E12.83529
G1 X83.493 Y77.174 E12.88176
G1 X82.71 Y77.796 E12.92832
G1 X82.11 Y78.599 E12.975
G1 X81.75 Y79.484 E13.01948
G1 X81.639 Y80.065 E13.04703
G1 X81.639 Y81.018 E13.0914
G1 X81.893 Y81.987 E13.13805
G1 X82.385 Y82.859 E13.18467
G1 X83.08 Y83.578 E13.23123
G1 X83.936 Y84.095 E13.2778
G1 X84.895 Y84.38 E13.32438
G1 X85.894 Y84.412 E13.37092
G1 X86.87 Y84.19 E13.41753
G1 X87.757 Y83.726 E13.46414
G1 X88.497 Y83.054 E13.51069
G1 X89.043 Y82.215 E13.5573
G1 X89.357 Y81.266 E13.60385
G1 X89.423 Y80.268 E13.65042
G1 X89.231 Y79.286 E13.69701
G1 X88.797 Y78.385 E13.74358
G1 X88.149 Y77.623 E13.79016
G1 X87.328 Y77.051 E13.83675
G1 X86.389 Y76.704 E13.88336
M204 S3000
M205 X10 Y10
G0 X133.63 Y71.42
M204 S1800
M205 X8 Y8
G1 X134.212 Y71.468 E13.91055
G1 X134.858 Y71.564 E13.94097
G1 X135.448 Y71.686 E13.96902
G1 X136.032 Y71.842 E13.99717
G1 X136.615 Y72.037 E14.02579
G1 X137.199 Y72.267 E14.05502
G1 X137.764 Y72.531 E14.08406
G1 X138.292 Y72.817 E14.11202
G1 X138.835 Y73.151 E14.1417
G1 X139.319 Y73.491 E14.16924
G1 X139.834 Y73.897 E14.19978
G1 X140.258 Y74.275 E14.22623
G1 X140.715 Y74.732 E14.25633
G1 X141.117 Y75.183 E14.28446
G1 X141.503 Y75.672 E14.31347
G1 X141.854 Y76.173 E14.34195
G1 X142.174 Y76.691 E14.3703
G1 X142.473 Y77.245 E14.39962
G1 X142.731 Y77.798 E14.42803
G1 X142.968 Y78.396 E14.45798
G1 X143.153 Y78.955 E14.4854
G1 X143.315 Y79.559 E14.51452
G1 X143.437 Y80.151 E14.54267
G1 X143.526 Y80.754 E14.57105
G1 X143.58 Y81.372 E14.59993
G1 X143.6 Y82.017 E14.62998
G1 X143.6 Y127.972 E16.76984
G1 X143.58 Y128.632 E16.80059
G1 X143.528 Y129.233 E16.82868
G1 X143.437 Y129.856 E16.85799
G1 X143.316 Y130.438 E16.88567
G1 X143.156 Y131.036 E16.9145
G1 X142.964 Y131.611 E16.94273
G1 X142.718 Y132.231 E16.97378
G1 X142.471 Y132.76 E17.00097
G1 X142.18 Y133.301 E17.02957
G1 X141.852 Y133.829 E17.05852
G1 X141.5 Y134.33 E17.08703
G1 X141.107 Y134.827 E17.11653
G1 X140.71 Y135.273 E17.14434
G1 X140.26 Y135.722 E17.17394
G1 X139.824 Y136.11 E17.20111
G1 X139.302 Y136.522 E17.23208
G1 X138.831 Y136.85 E17.2588
G1 X138.281 Y137.189 E17.28889
G1 X137.76 Y137.472 E17.3165
G1 X137.195 Y137.733 E17.34548
G1 X136.619 Y137.961 E17.37432
G1 X136.027 Y138.158 E17.40337
G1 X135.415 Y138.32 E17.43285
G1 X134.84 Y138.439 E17.46019
G1 X134.229 Y138.528 E17.48895
G1 X133.624 Y138.58 E17.51722
G1 X133.019 Y138.598 E17.5454
G1 X86.984 Y138.599 E19.68899
G1 X86.37 Y138.58 E19.71759
G1 X85.788 Y138.532 E19.74478
G1 X85.142 Y138.436 E19.77519
G1 X84.552 Y138.314 E19.80325
G1 X83.968 Y138.158 E19.8314
G1 X83.385 Y137.963 E19.86002
G1 X82.813 Y137.737 E19.88866
G1 X82.204 Y137.453 E19.91995
G1 X81.712 Y137.186 E19.94601
G1 X81.165 Y136.849 E19.97593
G1 X80.666 Y136.498 E20.00434
G1 X80.176 Y136.111 E20.03341
G1 X79.739 Y135.722 E20.06066
G1 X79.273 Y135.256 E20.09134
G1 X78.881 Y134.815 E20.11882
G1 X78.503 Y134.337 E20.14719
G1 X78.152 Y133.834 E20.17575
G1 X77.807 Y133.275 E20.20634
G1 X77.532 Y132.768 E20.2332
G1 X77.264 Y132.189 E20.26291
G1 X77.031 Y131.601 E20.29236
G1 X76.846 Y131.044 E20.31969
G1 X76.682 Y130.429 E20.34933
G1 X76.56 Y129.834 E20.37761
G1 X76.472 Y129.231 E20.40598
G1 X76.419 Y128.617 E20.43468
G1 X76.4 Y128 E20.46342
G1 X76.4 Y82.028 E22.60407
G1 X76.421 Y81.357 E22.63533
G1 X76.472 Y80.766 E22.66295
G1 X76.565 Y80.132 E22.69279
G1 X76.684 Y79.559 E22.72004
G1 X76.844 Y78.966 E22.74864
G1 X77.048 Y78.357 E22.77855
G1 X77.282 Y77.767 E22.8081
G1 X77.522 Y77.254 E22.83448
G1 X77.828 Y76.686 E22.86452
G1 X78.148 Y76.171 E22.89275
G1 X78.5 Y75.67 E22.92126
G1 X78.895 Y75.171 E22.9509
G1 X79.298 Y74.719 E22.97909
G1 X79.734 Y74.284 E23.00777
G1 X80.201 Y73.869 E23.03686
G1 X80.701 Y73.475 E23.06651
G1 X81.169 Y73.149 E23.09306
G1 X81.721 Y72.81 E23.12323
G1 X82.235 Y72.531 E23.15046
G1 X82.825 Y72.257 E23.18075
G1 X83.371 Y72.042 E23.20807
G1 X83.973 Y71.842 E23.23761
G1 X84.585 Y71.68 E23.26709
G1 X85.16 Y71.561 E23.29443
G1 X85.771 Y71.472 E23.32318
G1 X86.376 Y71.42 E23.35146
G1 X86.981 Y71.402 E23.37964
G1 X133.016 Y71.401 E25.52323
G1 X133.63 Y71.42 E25.55183
M204 S3000
M205 X10 Y10
G0 X135.352 Y76.704
M204 S1800
M205 X8 Y8
G1 X134.356 Y76.61 E25.59841
G1 X133.368 Y76.769 E25.64501
G1 X132.453 Y77.174 E25.6916
G1 X131.673 Y77.797 E25.73809
G1 X131.073 Y78.598 E25.78469
G1 X130.713 Y79.484 E25.82922
G1 X130.602 Y80.065 E25.85676
G1 X130.602 Y81.018 E25.90114
G1 X130.856 Y81.987 E25.94778
G1 X131.348 Y82.859 E25.99441
G1 X132.043 Y83.576 E26.0409
G1 X132.897 Y84.095 E26.08744
G1 X133.857 Y84.38 E26.13407
G1 X134.856 Y84.412 E26.18061
G1 X135.832 Y84.19 E26.22721
G1 X136.72 Y83.726 E26.27387
G1 X137.46 Y83.054 E26.32041
G1 X138.006 Y82.215 E26.36703
G1 X138.32 Y81.266 E26.41357
G1 X138.386 Y80.268 E26.46014
G1 X138.194 Y79.286 E26.50673
G1 X137.76 Y78.385 E26.5533
G1 X137.112 Y77.623 E26.59988
G1 X136.291 Y77.051 E26.64647
G1 X135.352 Y76.704 E26.69309
M204 S3000
M205 X10 Y10
G0 X136.758 Y78.012
G0 X137.32 Y78.672
G0 X137.695 Y79.452
G0 X137.844 Y80.217
G0 X135.352 Y125.667
M204 S1800
M205 X8 Y8
G1 X134.356 Y125.573 E26.73967
G1 X133.368 Y125.732 E26.78627
G1 X132.453 Y126.137 E26.83286
G1 X131.673 Y126.76 E26.87934
G1 X131.073 Y127.561 E26.92595
G1 X130.713 Y128.447 E26.97048
G1 X130.602 Y129.028 E26.99802
G1 X130.602 Y129.981 E27.0424
G1 X130.856 Y130.95 E27.08904
G1 X131.348 Y131.822 E27.13566
G1 X132.043 Y132.541 E27.18223
G1 X132.898 Y133.057 E27.22873
G1 X133.857 Y133.342 E27.27531
G1 X134.856 Y133.375 E27.32186
G1 X135.832 Y133.153 E27.36846
G1 X136.72 Y132.689 E27.41512
G1 X137.46 Y132.017 E27.46166
G1 X138.006 Y131.178 E27.50827
G1 X138.32 Y130.229 E27.55482
G1 X138.386 Y129.231 E27.60139
G1 X138.194 Y128.249 E27.64798
G1 X137.76 Y127.348 E27.69455
G1 X137.112 Y126.586 E27.74113
G1 X136.291 Y126.014 E27.78772
G1 X135.352 Y125.667 E27.83433
M204 S3000
M205 X10 Y10
G0 X85.843 Y132.852
G0 X83.08 Y132.541
M204 S1800
M205 X8 Y8
G1 X83.937 Y133.057 E27.88091
G1 X84.894 Y133.342 E27.92741
G1 X85.894 Y133.375 E27.974
G1 X86.87 Y133.153 E28.02061
G1 X87.757 Y132.689 E28.06722
G1 X88.497 Y132.017 E28.11376
G1 X89.043 Y131.178 E28.16038
G1 X89.357 Y130.229 E28.20692
G1 X89.423 Y129.231 E28.25349
G1 X89.231 Y128.249 E28.30009
G1 X88.797 Y127.348 E28.34665
G1 X88.149 Y126.586 E28.39323
G1 X87.328 Y126.014 E28.43982
G1 X86.389 Y125.667 E28.48644
G1 X85.393 Y125.573 E28.53302
G1 X84.405 Y125.732 E28.57962
G1 X83.493 Y126.137 E28.62608
G1 X82.71 Y126.759 E28.67265
G1 X82.11 Y127.562 E28.71932
G1 X81.75 Y128.447 E28.76381
G1 X81.639 Y129.028 E28.79136
G1 X81.639 Y129.981 E28.83573
G1 X81.893 Y130.95 E28.88238
G1 X82.385 Y131.822 E28.929
G1 X83.08 Y132.541 E28.97556
M204 S3000
M205 X10 Y10
G0 X83.432 Y132.099
M204 S1800
M205 X8 Y8
G1 X84.165 Y132.541 E29.01542
G1 X84.985 Y132.785 E29.05526
G1 X85.84 Y132.813 E29.09509
G1 X86.675 Y132.623 E29.13496
G1 X87.434 Y132.226 E29.17485
G1 X88.067 Y131.651 E29.21467
G1 X88.534 Y130.933 E29.25455
G1 X88.803 Y130.121 E29.29438
G1 X88.859 Y129.267 E29.33423
G1 X88.695 Y128.427 E29.37409
G1 X88.324 Y127.656 E29.41393
G1 X87.769 Y127.004 E29.4538
G1 X87.067 Y126.514 E29.49366
G1 X86.264 Y126.218 E29.53351
G1 X85.411 Y126.137 E29.57341
G1 X84.566 Y126.273 E29.61326
G1 X83.785 Y126.62 E29.65306
G1 X83.115 Y127.152 E29.69289
G1 X82.602 Y127.839 E29.73282
G1 X82.29 Y128.607 E29.77142
G1 X82.199 Y129.081 E29.79389
G1 X82.199 Y129.909 E29.83245
G1 X82.416 Y130.738 E29.87235
G1 X82.837 Y131.484 E29.91224
G1 X83.432 Y132.099 E29.95208
M204 S3000
M205 X10 Y10
G0 X83.37 Y132.177
G0 X84.149 Y132.577
G0 X84.979 Y132.824
G0 X85.843 Y132.852
G0 X134.373 Y126.098
G0 X135.249 Y126.121
G0 X135.227 Y126.218
M204 S1800
M205 X8 Y8
G1 X134.374 Y126.137 E29.99198
G1 X133.529 Y126.273 E30.03183
G1 X132.746 Y126.62 E30.07171
G1 X132.078 Y127.153 E30.11151
G1 X131.565 Y127.839 E30.15139
G1 X131.253 Y128.607 E30.18999
G1 X131.162 Y129.081 E30.21247
G1 X131.162 Y129.909 E30.25102
G1 X131.379 Y130.738 E30.29092
G1 X131.8 Y131.484 E30.33081
G1 X132.395 Y132.099 E30.37066
G1 X133.126 Y132.541 E30.41043
G1 X133.947 Y132.785 E30.45032
G1 X134.802 Y132.813 E30.49015
G1 X135.637 Y132.623 E30.53002
G1 X136.397 Y132.226 E30.56995
G1 X137.03 Y131.651 E30.60977
G1 X137.497 Y130.933 E30.64965
G1 X137.766 Y130.121 E30.68948
G1 X137.822 Y129.267 E30.72934
G1 X137.658 Y128.427 E30.76919
G1 X137.287 Y127.656 E30.80903
G1 X136.732 Y127.004 E30.8489
G1 X136.03 Y126.514 E30.88876
G1 X135.227 Y126.218 E30.92861
M204 S3000
M205 X10 Y10
G0 X135.249 Y126.121
G0 X137.861 Y80.302
G0 X137.695 Y79.452
G0 X137.32 Y78.672
G0 X136.758 Y78.012
G0 X136.183 Y77.611
G0 X135.249 Y77.158
G0 X135.227 Y77.255
M204 S1800
M205 X8 Y8
G1 X134.374 Y77.174 E30.96851
G1 X133.529 Y77.31 E31.00836
G1 X132.746 Y77.657 E31.04824
G1 X132.078 Y78.19 E31.08804
G1 X131.565 Y78.876 E31.12792
G1 X131.253 Y79.644 E31.16652
G1 X131.162 Y80.118 E31.189
G1 X131.162 Y80.946 E31.22755
G1 X131.379 Y81.775 E31.26745
G1 X131.8 Y82.521 E31.30734
G1 X132.395 Y83.135 E31.34715
G1 X133.126 Y83.579 E31.38698
G1 X133.947 Y83.823 E31.42686
G1 X134.802 Y83.85 E31.46669
G1 X135.637 Y83.66 E31.50657
G1 X136.397 Y83.263 E31.54649
G1 X137.03 Y82.688 E31.58631
G1 X137.497 Y81.97 E31.6262
G1 X137.766 Y81.158 E31.66603
G1 X137.822 Y80.304 E31.70588
G1 X137.658 Y79.464 E31.74573
G1 X137.287 Y78.693 E31.78557
G1 X136.732 Y78.041 E31.82544
G1 X136.03 Y77.551 E31.86531
G1 X135.227 Y77.255 E31.90516
M204 S3000
M205 X10 Y10
G0 X135.249 Y77.158
G0 X133.652 Y70.959
G0 X133.657 Y70.86
M204 S1800
M205 X8 Y8
G1 X134.277 Y70.912 E31.93413
G1 X134.947 Y71.011 E31.96566
G1 X135.587 Y71.143 E31.99609
G1 X136.187 Y71.304 E32.02502
G1 X136.816 Y71.514 E32.0559
G1 X137.411 Y71.749 E32.08569
G1 X138.024 Y72.035 E32.11718
G1 X138.575 Y72.333 E32.14635
G1 X139.137 Y72.679 E32.17708
G1 X139.661 Y73.047 E32.2069
G1 X140.181 Y73.457 E32.23773
G1 X140.648 Y73.873 E32.26686
G1 X141.126 Y74.351 E32.29833
G1 X141.535 Y74.81 E32.32696
G1 X141.958 Y75.345 E32.35872
G1 X142.313 Y75.852 E32.38754
G1 X142.667 Y76.425 E32.4189
G1 X142.966 Y76.979 E32.44821
G1 X143.252 Y77.592 E32.47971
G1 X143.489 Y78.19 E32.50966
G1 X143.692 Y78.801 E32.53964
G1 X143.862 Y79.435 E32.57021
G1 X143.989 Y80.055 E32.59968
G1 X144.083 Y80.692 E32.62966
G1 X144.14 Y81.341 E32.66
G1 X144.16 Y82 E32.6907
G1 X144.16 Y127.989 E34.83214
G1 X144.139 Y128.667 E34.86372
G1 X144.085 Y129.295 E34.89307
G1 X143.989 Y129.951 E34.92394
G1 X143.859 Y130.574 E34.95358
G1 X143.694 Y131.191 E34.98332
G1 X143.485 Y131.818 E35.01409
G1 X143.239 Y132.438 E35.04515
G1 X142.971 Y133.012 E35.07465
G1 X142.662 Y133.586 E35.105
G1 X142.321 Y134.136 E35.13514
G1 X141.952 Y134.661 E35.16502
G1 X141.536 Y135.187 E35.19625
G1 X141.112 Y135.663 E35.22593
G1 X140.65 Y136.124 E35.25632
G1 X140.171 Y136.55 E35.28617
G1 X139.647 Y136.963 E35.31724
G1 X139.125 Y137.327 E35.34687
G1 X138.565 Y137.672 E35.37749
G1 X138.012 Y137.972 E35.40679
G1 X137.407 Y138.252 E35.43783
G1 X136.817 Y138.485 E35.46737
G1 X136.186 Y138.695 E35.49834
G1 X135.545 Y138.865 E35.52922
G1 X134.937 Y138.991 E35.55813
G1 X134.288 Y139.085 E35.58866
G1 X133.653 Y139.14 E35.61834
G1 X133.035 Y139.158 E35.64713
G1 X86.967 Y139.159 E37.79225
G1 X86.343 Y139.14 E37.82132
G1 X85.723 Y139.088 E37.85029
